src/svg/icon-rate.svg

<svg width="24" height="24" viewBox="0 0 24 24" fill="none" xmlns="http://www.w3.org/2000/svg">
<path fill-rule="evenodd" clip-rule="evenodd" d="M17.625 6H4.5C3.11875 6 2 7.04475 2 8.33333V15.9167C2 17.025 2.82812 17.9528 3.9375 18.1908C4.19375 19.2271 5.1875 20 6.375 20H19.5C20.8813 20 22 18.9552 22 17.6667C22 15.5926 22 12.1574 22 10.0833C22 8.975 21.1719 8.04721 20.0625 7.80921C19.8062 6.77292 18.8125 6 17.625 6ZM20.125 9.07271V15.9167C20.125 17.2053 19.0063 18.25 17.625 18.25H5.29063C5.50938 18.5988 5.9125 18.8333 6.375 18.8333H19.5C20.1906 18.8333 20.75 18.311 20.75 17.6667C20.75 15.5926 20.75 12.1574 20.75 10.0833C20.75 9.65137 20.5 9.27454 20.125 9.07271ZM3.25 15.1067V15.9167C3.25 16.561 3.80938 17.0833 4.5 17.0833H5.36875C5.12813 16.1025 4.3 15.3298 3.25 15.1067ZM18.875 15.1067C17.825 15.3298 16.9969 16.1025 16.7563 17.0833H17.625C18.3156 17.0833 18.875 16.561 18.875 15.9167V15.1067ZM11.0625 7.75C13.65 7.75 15.75 9.71029 15.75 12.125C15.75 14.5397 13.65 16.5 11.0625 16.5C8.475 16.5 6.375 14.5397 6.375 12.125C6.375 9.71029 8.475 7.75 11.0625 7.75ZM10.4375 9.56038C9.71562 9.75113 9.1875 10.3703 9.1875 11.1042C9.1875 11.9897 9.95625 12.7083 10.9062 12.7083H11.2188C11.4781 12.7083 11.6875 12.9043 11.6875 13.1458C11.6875 13.3873 11.4781 13.5833 11.2188 13.5833H10.825C10.6313 13.5833 10.4563 13.4824 10.3719 13.3226C10.2188 13.0344 9.84062 12.9178 9.53438 13.0615C9.225 13.2056 9.1 13.5562 9.25313 13.8441C9.49062 14.2895 9.93125 14.603 10.4375 14.71V14.75C10.4375 15.072 10.7188 15.3333 11.0625 15.3333C11.4062 15.3333 11.6875 15.072 11.6875 14.75V14.6896C12.4094 14.4989 12.9375 13.8797 12.9375 13.1458C12.9375 12.2603 12.1687 11.5417 11.2188 11.5417H10.9062C10.6469 11.5417 10.4375 11.3457 10.4375 11.1042C10.4375 10.8627 10.6469 10.6667 10.9062 10.6667H11.3C11.4937 10.6667 11.6687 10.7676 11.7531 10.9274C11.9062 11.2156 12.2844 11.3325 12.5906 11.1885C12.9 11.0444 13.025 10.6938 12.8719 10.4059C12.6344 9.96054 12.1938 9.647 11.6875 9.53996V9.5C11.6875 9.178 11.4062 8.91667 11.0625 8.91667C10.7188 8.91667 10.4375 9.178 10.4375 9.5V9.56038ZM16.7563 7.16667C16.9969 8.14754 17.825 8.92017 18.875 9.14329V8.33333C18.875 7.68904 18.3156 7.16667 17.625 7.16667H16.7563ZM5.36875 7.16667H4.5C3.80938 7.16667 3.25 7.68904 3.25 8.33333V9.14329C4.3 8.92017 5.12813 8.14754 5.36875 7.16667Z" fill="currentColor"/>
</svg>

<svg xmlns="http://www.w3.org/2000/svg" width="24" height="24" fill="none" viewBox="0 0 24 24"><path fill="currentColor" fill-rule="evenodd" d="M17.625 6H4.5C3.119 6 2 7.045 2 8.333v7.584c0 1.108.828 2.036 1.938 2.274C4.194 19.227 5.188 20 6.374 20H19.5c1.381 0 2.5-1.045 2.5-2.333v-7.584c0-1.108-.828-2.036-1.937-2.274C19.806 6.773 18.813 6 17.625 6m2.5 3.073v6.844c0 1.288-1.119 2.333-2.5 2.333H5.291c.218.349.621.583 1.084.583H19.5c.69 0 1.25-.522 1.25-1.166v-7.584c0-.432-.25-.808-.625-1.01M3.25 15.107v.81c0 .644.56 1.166 1.25 1.166h.869c-.24-.98-1.069-1.753-2.119-1.976m15.625 0c-1.05.223-1.878.995-2.119 1.976h.869c.69 0 1.25-.522 1.25-1.166zM11.063 7.75c2.587 0 4.687 1.96 4.687 4.375s-2.1 4.375-4.687 4.375-4.688-1.96-4.688-4.375 2.1-4.375 4.688-4.375m-.626 1.81c-.721.191-1.25.81-1.25 1.544 0 .886.77 1.604 1.72 1.604h.312c.26 0 .469.196.469.438 0 .241-.21.437-.47.437h-.393a.51.51 0 0 1-.453-.26c-.153-.289-.531-.405-.838-.261-.309.144-.434.494-.28.782.237.446.677.759 1.184.866v.04c0 .322.28.583.624.583s.626-.261.626-.583v-.06c.721-.191 1.25-.81 1.25-1.544 0-.886-.77-1.604-1.72-1.604h-.312c-.26 0-.469-.196-.469-.438 0-.241.21-.437.47-.437h.393c.194 0 .369.1.453.26.153.289.531.406.838.261.309-.144.434-.494.28-.782a1.74 1.74 0 0 0-1.184-.866V9.5c0-.322-.28-.583-.624-.583s-.626.261-.626.583zm6.32-2.393c.24.98 1.068 1.753 2.118 1.976v-.81c0-.644-.56-1.166-1.25-1.166zm-11.388 0H4.5c-.69 0-1.25.522-1.25 1.166v.81c1.05-.223 1.878-.995 2.119-1.976" clip-rule="evenodd"/></svg>
